packages/vapor/resources/icons/svg/more.svg

<svg width="20" height="20" xmlns="http://www.w3.org/2000/svg" xmlns:svg="http://www.w3.org/2000/svg" viewBox="0 0 20 20">
 <g>
  <title>Layer 1</title>
  <g id="svg_1">
   <g id="svg_2">
    <ellipse id="svg_3" ry="0.7" rx="0.7" cy="10" cx="6.4"/>
    <path id="svg_4" d="m6.4,11.2c-0.7,0 -1.2,-0.5 -1.2,-1.2s0.5,-1.2 1.2,-1.2s1.1,0.6 1.1,1.2s-0.5,1.2 -1.1,1.2zm0,-1.4c-0.1,0 -0.2,0.1 -0.2,0.2c0,0.2 0.4,0.2 0.4,0c-0.1,-0.1 -0.1,-0.2 -0.2,-0.2z"/>
   </g>
   <g id="svg_5">
    <ellipse id="svg_6" ry="0.7" rx="0.7" cy="10" cx="10"/>
    <path id="svg_7" d="m10,11.2c-0.7,0 -1.2,-0.5 -1.2,-1.2s0.5,-1.2 1.2,-1.2c0.7,0 1.2,0.5 1.2,1.2s-0.5,1.2 -1.2,1.2zm0,-1.4c-0.1,0 -0.2,0.1 -0.2,0.2c0,0.2 0.4,0.2 0.4,0c0,-0.1 -0.1,-0.2 -0.2,-0.2z"/>
   </g>
   <g id="svg_8">
    <ellipse id="svg_9" ry="0.7" rx="0.7" cy="10" cx="13.6"/>
    <path id="svg_10" d="m13.6,11.2c-0.7,0 -1.2,-0.5 -1.2,-1.2s0.5,-1.2 1.2,-1.2c0.7,0 1.2,0.5 1.2,1.2s-0.5,1.2 -1.2,1.2zm0,-1.4c-0.1,0 -0.2,0.1 -0.2,0.2c0,0.2 0.4,0.2 0.4,0c0,-0.1 -0.1,-0.2 -0.2,-0.2z"/>
   </g>
  </g>
  <path id="svg_11" d="m10,17.2c-4,0 -7.2,-3.2 -7.2,-7.2s3.2,-7.2 7.2,-7.2s7.2,3.2 7.2,7.2s-3.2,7.2 -7.2,7.2zm0,-16.2c-5,0 -9,4 -9,9s4,9 9,9c5,0 9,-4 9,-9s-4,-9 -9,-9z"/>
 </g>
</svg>

<?xml version="1.0" encoding="utf-8"?>
<!-- Generator: Adobe Illustrator 19.1.0, SVG Export Plug-In . SVG Version: 6.00 Build 0)  -->
<svg version="1.1" id="Calque_1" xmlns="http://www.w3.org/2000/svg" xmlns:xlink="http://www.w3.org/1999/xlink" x="0px" y="0px"
	 viewBox="0 0 20 20" style="enable-background:new 0 0 20 20;" xml:space="preserve">
<style type="text/css">
	.st0{fill:#000000;}
	.st1{fill-rule:evenodd;clip-rule:evenodd;fill:#000000;}
	.st2{fill-rule:evenodd;clip-rule:evenodd;fill:none;}
</style>
<g>
	<g>
		<ellipse class="st1" cx="6.4" cy="10" rx="0.7" ry="0.7"/>
		<path class="st0" d="M6.4,11.2c-0.7,0-1.2-0.5-1.2-1.2s0.5-1.2,1.2-1.2S7.5,9.4,7.5,10S7,11.2,6.4,11.2z M6.4,9.8
			c-0.1,0-0.2,0.1-0.2,0.2c0,0.2,0.4,0.2,0.4,0C6.5,9.9,6.5,9.8,6.4,9.8z"/>
	</g>
	<g>
		<ellipse class="st1" cx="10" cy="10" rx="0.7" ry="0.7"/>
		<path class="st0" d="M10,11.2c-0.7,0-1.2-0.5-1.2-1.2S9.3,8.8,10,8.8c0.7,0,1.2,0.5,1.2,1.2S10.7,11.2,10,11.2z M10,9.8
			c-0.1,0-0.2,0.1-0.2,0.2c0,0.2,0.4,0.2,0.4,0C10.2,9.9,10.1,9.8,10,9.8z"/>
	</g>
	<g>
		<ellipse class="st1" cx="13.6" cy="10" rx="0.7" ry="0.7"/>
		<path class="st0" d="M13.6,11.2c-0.7,0-1.2-0.5-1.2-1.2s0.5-1.2,1.2-1.2c0.7,0,1.2,0.5,1.2,1.2S14.3,11.2,13.6,11.2z M13.6,9.8
			c-0.1,0-0.2,0.1-0.2,0.2c0,0.2,0.4,0.2,0.4,0C13.8,9.9,13.7,9.8,13.6,9.8z"/>
	</g>
</g>
<path class="st1" d="M10,17.2c-4,0-7.2-3.2-7.2-7.2S6,2.8,10,2.8S17.2,6,17.2,10S14,17.2,10,17.2z M10,1c-5,0-9,4-9,9s4,9,9,9
	c5,0,9-4,9-9S15,1,10,1z"/>
</svg>
